X: 71
T: Allah Allah Allah Hû
C: Ali Ufkî
O: Turkey
F: http://compmusic.upf.edu/node/140
N: huseyni--ilahi--agirduyek--allah_allah--ali_ufki
N: makam= huseyni
N: form= ilahi
N: usul= agirduyek = 8/4
M: 8/4
L: 1/16
K: C _2/4B ^3/4f  
Q: 1/4=114
%%MIDI tuningsystem comma53
A4 c4 d4 e4 e4 =f4 e8  | d4 A4 c4 c4 B4 B4 A8  | \
w:  Al lah  Al lah  Al lah  hû    |  İ ley ke ne  tev ve  hû    | 
A4 c4 d4 e4 e4 =f4 e8  | 
w:  Al lah  Al lah  Al lah  hû    | 
d4 A4 c4 c4 B4 B4 A8  | a4 a4 g4 e4 g4 f4 e8  | \
w:  İ ley ke ne  tev ve  hû    |  Ah  e sir ge  sul ta nım    | 
g4 g4 =f4 e4 d4 d4 c8  | 
w:  Ha rab  ol du  va ta nım    | 
e4 e4 e4 d4 c4 B4 d8  | d4 d4 c4 A4 c4 B4 A8  | \
w:  Gel  kal dır  a da ve ti    |  Ar tır  gıl  ma hab be ti    | 
a4 a4 g4 e4 g4 f4 e8  | 
w:  Ah  e sir ge  sul ta nım    | 
g4 g4 =f4 e4 d4 d4 c8  | e4 e4 e4 d4 c4 B4 d8  | \
w:  Ha rab  ol du  va ta nım    |  Gel  kal dır  a da ve ti    | 
d4 d4 c4 A4 c4 B4 A8  | 
w:  Ar tır  gıl  ma hab be ti    | 
A4 c4 d4 e4 e4 =f4 e8  | d4 A4 c4 c4 B4 B4 A8  | \
w:  Al lah  Al lah  Al lah  hû    |  İ ley ke ne  tev ve  hû    | 
A4 c4 d4 e4 e4 =f4 e8  | 
w:  Al lah  Al lah  Al lah  hû    | 
d4 A4 c4 c4 B4 B4 A8  | a4 a4 g4 e4 g4 f4 e8  | \
w:  İ ley ke ne  tev ve  hû    |  Ah  e sir ge  sul ta nım    | 
g4 g4 =f4 e4 d4 d4 c8  | 
w:  Ha rab  ol du  va ta nım    | 
e4 e4 e4 d4 c4 B4 d8  | d4 d4 c4 A4 c4 B4 A8  | \
w:  Gel  kal dır  a da ve ti    |  Ar tır  gıl  ma hab be ti    | 
a4 a4 g4 e4 g4 f4 e8  | 
w:  Ah  e sir ge  sul ta nım    | 
g4 g4 =f4 e4 d4 d4 c8  | e4 e4 e4 d4 c4 B4 d8  | \
w:  Ha rab  ol du  va ta nım    |  Gel  kal dır  a da ve ti    | 
d4 d4 c4 A4 c4 B4 A8  | 
w:  Ar tır  gıl  ma hab be ti    | 
|


